!!!OTL: Loblied.
!!!OTL-incipit:LOBT FROH DEN HERRN
!!!COM: H. G. Naegeli
!!!ARE: Europa, Mitteleuropa, Deutschland
!!!SCT: F0346
!!!TXL: @@DE
!!!YEM: Copyright 1995, estate of Helmut Schaffrath.
**kern	**text
*ICvox	*
*M3/4	*
*k[f#c#]	*
*D:	*
!LO:TX:a:t=Munter.	!
{4a	1._Lobt
=1	=1
(4.dd/	froh
8cc#/)	.
8bL	den
8aJ	.
=2	=2
(>4a	Herrn,
4f#)}	.
{4a	ihr
=3	=3
4.a	ju-
8g	-gend-
8f#	-li-
8e	-chen
=4	=4
4f#	Chö-
4d}	-re!
{4a	Er
=5	=5
(>4b	hö-
4dd)	.
4b	-ret
=6	=6
(>4a	gern
4f#)}	.
{4a	ein
=7	=7
4.b	Lied
8cc#/	ʒu
8dd/	ſei-
8b/	-ner
=8	=8
4a	Eh-
4f#}	-re.
{4dd/	Lobt
=9	=9
(4.ee/	froh
8ff#/)	.
4gg/	den
=10	=10
2ff#/}	Herrn,
{4dd/	lobt
=11	=11
(>4.cc#/	froh
8dd/)	.
4ee/	den
=12	=12
2dd/}	Herrn!
==	==
!!!AGN: Jugend - Lied, Lob - Lied, religioes
!!!ONB: ESAC (Essen Associative Code) Database: FINK
!!!AMT: simple triple
!!!AIN: vox
!!!EED: Helmut Schaffrath
!!!EEV: 1.0
!!!RDF**kern: >= above
!!Text: G. Gessner
!!!GTL: Jugendlieder
!!!source: Musikalischer Hausschatz der Deutschen. Eine Sammlung von über 1000 Liedern und Gesängen mit Singstimmen und Klavierbegleitung. Leipzig, Litterarisches Verlags-Haus.
!!!page: 203
!!!ENC: Anna Maria Matuszewska
!!!EEV: 2025/03/14
*-	*-
